X:1
T:Title
%%score ( 1 2 ) { 3 | 4 }
L:1/8
Q:1/4=110
M:4/4
K:G
V:1 treble nm="Grand Piano, Soprano"
V:2 treble 
V:3 bass nm="Choir Pad, Lenoal, CM"
V:4 bass 
V:1
 [B,D]2 [DB]2 [CA]2 [B,G]2 | [DF]2 [DF]2- [DF][CE] [B,D]2 | [B,D]2 [Dc]2 [DB]2 [EA]2 | GA [^DB]6 | %4
w: By~Arr.~from~J.~J.~Behrens~by~Lowel~Mason,~1841 * * *||||
 [EG]2 [=Fd]2 [FG]2 [EG]2 | [Ec]2 [Fc]2 [FA]2 [GB]2 | [GB]2 Ae cA [DG]2 | [DF]2 [DG]6- | %8
w: ||||
 [DG]2 z2 z4 |] %9
w: |
V:2
 x8 | x8 | x8 | E2 z2 z4 | x8 | x8 | z2 E2 E2 z2 | x8 | x8 |] %9
V:3
 G,2 G,2 G,2 G,2 | G,2 G,2- G,/ z/ G, G,2 | G,2 A,2 B,2 E,2 | E,2 F,6 | G,2 G,2[K:treble] D2 C2 | %5
 C2 A,2 D2 D2 | D2 C2[K:bass] C2 B,2 | A,2 B,6- | B,2 z2 z4 |] %9
V:4
 z8 | z8 | z2 F,2 G,2 C,2 | C,2 B,,6 | E,2 B,,2 B,,2 C,2 | A,,2 D,2 D,2 G,2 | G,2 C,2 C,2 D,2 | %7
 D,2 G,,6- | G,,2 z2 z4 |] %9

